X: 1
T: Pasucais D'Uvieu
M: 6/8
L: 1/8
R: jig
K: Dmaj
faf|:d2f fef|g2e ege|cBA ede|f2d faf|
d2f fef|g2e ege|cBA efe|[1 d3 faf:|[2 d3 DFG||
ABc dcB|A3 dcB|ABA GFG|B2A AFG|
ABc dcB|A3 dcB|ABA GFE|[1 D3 DFG:|[2 D3 z3||
